svgs/light/folder-xmark.svg

<svg xmlns="http://www.w3.org/2000/svg" viewBox="0 0 512 512"><!-- Font Awesome Pro 6.0.0-alpha2 by @fontawesome - https://fontawesome.com License - https://fontawesome.com/license (Commercial License) --><path d="M448 96H272L226.746 50.746C214.742 38.742 198.465 32 181.492 32H64C28.656 32 0 60.654 0 96V416C0 451.346 28.656 480 64 480H448C483.344 480 512 451.346 512 416V160C512 124.654 483.344 96 448 96ZM480 416C480 433.645 465.645 448 448 448H64C46.355 448 32 433.645 32 416V96C32 78.355 46.355 64 64 64H181.492C190.039 64 198.074 67.328 204.117 73.375L249.375 118.627L258.746 128H448C465.645 128 480 142.355 480 160V416ZM331.312 212.688C325.062 206.438 314.937 206.438 308.688 212.688L256 265.375L203.312 212.688C197.062 206.438 186.937 206.438 180.688 212.688S174.438 229.063 180.688 235.312L233.375 288L180.688 340.688C174.438 346.938 174.438 357.063 180.688 363.312C186.934 369.559 197.059 369.566 203.312 363.312L256 310.625L308.688 363.312C314.934 369.559 325.059 369.566 331.312 363.312C337.562 357.062 337.562 346.937 331.312 340.688L278.625 288L331.312 235.312C337.562 229.062 337.562 218.938 331.312 212.688Z"/></svg>

<svg xmlns="http://www.w3.org/2000/svg" viewBox="0 0 512 512"><!--! Font Awesome Pro 6.4.0 by @fontawesome - https://fontawesome.com License - https://fontawesome.com/license (Commercial License) Copyright 2023 Fonticons, Inc. --><path d="M32 96c0-17.7 14.3-32 32-32H188.1c8.5 0 16.6 3.4 22.6 9.4l35.9 35.9c12 12 28.3 18.7 45.3 18.7H448c17.7 0 32 14.3 32 32V416c0 17.7-14.3 32-32 32H64c-17.7 0-32-14.3-32-32V96zM64 32C28.7 32 0 60.7 0 96V416c0 35.3 28.7 64 64 64H448c35.3 0 64-28.7 64-64V160c0-35.3-28.7-64-64-64H291.9c-8.5 0-16.6-3.4-22.6-9.4L233.4 50.7c-12-12-28.3-18.7-45.3-18.7H64zM180.7 212.7c-6.2 6.2-6.2 16.4 0 22.6L233.4 288l-52.7 52.7c-6.2 6.2-6.2 16.4 0 22.6s16.4 6.2 22.6 0L256 310.6l52.7 52.7c6.2 6.2 16.4 6.2 22.6 0s6.2-16.4 0-22.6L278.6 288l52.7-52.7c6.2-6.2 6.2-16.4 0-22.6s-16.4-6.2-22.6 0L256 265.4l-52.7-52.7c-6.2-6.2-16.4-6.2-22.6 0z"/></svg>
